X: 1
T: Fields
C: Shana Aisenberg
R: waltz
S: Fiddle Hell Online 2021-02-24
Z: 2021 John Chambers <jc:trillian.mit.edu>
M: 3/4
L: 1/8
K: G
|:\
"G"B3 A GD | "C"EG "G"D2 GA | "Em"B3 A G2 | "D"d4 c2 |\
"G"B3 A GD | "C"EG "G"D2 GA | "Em"B3 A "D"GF | "G"G6 :|
"C"c3 G cd | e2 d2 c2 | "G"d3 B G2 | "D"AF D4 |\
"C"E2 G2 c2 | "G"cB G4 | "Am"A2 c2 e2 | "D"d6 ||
"C"c3 G cd | e2 d2 c2 | "G"d3 B G2 | "D"AF D4 |\
"C"E2 G2 cB | "D"A3 G FG- | "G"G2 B2 d2 | g6 |]
